static/assets/img/icons/theme/navigation/arrow-from-right.svg

<svg width="24px" height="24px" viewBox="0 0 24 24" version="1.1" xmlns="http://www.w3.org/2000/svg" xmlns:xlink="http://www.w3.org/1999/xlink">
    <title>Icon For Arrow-from-right</title>
    <g stroke="none" stroke-width="1" fill="none" fill-rule="evenodd">
        <polygon points="0 0 24 0 24 24 0 24" opacity="0"></polygon>
        <rect fill="#000000" opacity="0.3" transform="translate(10.000000, 12.000000) scale(-1, 1) rotate(-90.000000) translate(-10.000000, -12.000000) " x="9" y="5" width="2" height="14" rx="1"></rect>
        <rect fill="#000000" opacity="0.3" x="19" y="3" width="2" height="18" rx="1"></rect>
        <path d="M1.7071045,15.7071045 C1.3165802,16.0976288 0.683415225,16.0976288 0.292890933,15.7071045 C-0.0976333589,15.3165802 -0.0976333589,14.6834152 0.292890933,14.2928909 L6.29289093,8.29289093 C6.67146987,7.914312 7.28105631,7.90106637 7.67572234,8.26284357 L13.6757223,13.7628436 C14.0828413,14.136036 14.1103443,14.7686034 13.7371519,15.1757223 C13.3639594,15.5828413 12.7313921,15.6103443 12.3242731,15.2371519 L7.03007346,10.3841355 L1.7071045,15.7071045 Z" fill="#000000" fill-rule="nonzero" transform="translate(7.000001, 11.999997) scale(-1, -1) rotate(90.000000) translate(-7.000001, -11.999997) "></path>
    </g>
</svg>

<svg height="24" viewBox="0 0 24 24" width="24" xmlns="http://www.w3.org/2000/svg"><g fill="none" fill-rule="evenodd"><path d="m0 0h24v24h-24z" opacity="0"/><g fill="#000"><rect height="14" opacity=".3" rx="1" transform="matrix(0 -1 -1 0 22 22)" width="2" x="9" y="5"/><rect height="18" opacity=".3" rx="1" width="2" x="19" y="3"/><path d="m1.7071045 15.7071045c-.3905243.3905243-1.02368927.3905243-1.41421357 0-.39052429-.3905243-.39052429-1.0236893 0-1.4142136l6-5.99999997c.37857894-.37857893.98816538-.39182456 1.38283141-.03004736l5.99999996 5.50000003c.407119.3731924.434622 1.0057598.0614296 1.4128787-.3731925.407119-1.0057598.434622-1.4128788.0614296l-5.29419964-4.8530164z" fill-rule="nonzero" transform="matrix(0 -1 1 0 -4.999996 18.999998)"/></g></g></svg>
